X:1
T:Beautiful Beckoning Hands
T:Charles Carroll Luther, 1893
T:Beautiful Beckoning Hands
T:Public Domain
T:Public Domain
T:Public Domain
C:Charles Carroll Luther, 1893
Z:Public Domain
%%score ( 1 2 ) 3
L:1/8
M:6/8
K:D
V:1 treble 
V:2 treble 
V:3 bass 
V:1
 [DF]>[DF][DF] [DF][CE]D | [FA][FA][GA] [FA]3 | [GB]>[Gc][Gd] [FA][DF]D | [CG][EG][DF] [CE]3 | %4
w: 1.~Beau- ti- ful hands at the|way to- night, Fac-|es all shin- ing with ra-|ant light; Eyes look-|
w: 2.~Beck- on- ing hands of a|ther whose love Sac-|ri- ficed life her de- vo-|to prove; Hands of|
w: 3.~Beau- ti- ful hands of a|tle one, see! Ba-|by voice call- ing, O mo-|for thee; Ro- sy|
w: 4.~Beck- on- ing hands of a|band, a wife, Watch-|ing and wait- ing the loved|of life; Hands of|
w: 5.~Bright- est and best of that|i- ous throng, Cen-|ter of all and the theme|their song; Je- sus,|
 [DF]>[DF][DF] [DF][CE]D | [FA][FA][GA] [FA]3 | [GB]>[Gc][Gd] [FA][Fd][DF] | [CA][CG][CE] D3 || %8
w: ing down from yon heav- en-|home, Beau- ti- ful|hands they are beck- on- ing|“come.” * * *|
w: a fa- ther to mem- o-|dear, Beck- on up|high- er the wait- ing ones|here. * * *|
w: cheeked dar- ling, the light of|home, Tak- en so|ear- ly is beck- on- ing|“come.” * * *|
w: a bro- ther, a sis- ter,|friend, Out from the|gate- way to- night they ex-|tend. * * *|
w: our Sav- ior, the pierc- èd|stands, Lov- ing- ly|call- ing with beck- on- ing|hands. * * *|
"^Refrain" [FA]>[DF][FA] [Fd]3 | [GB]>[DG][GB] [Gd]3 | [FA]>[EG][DF] [GB][FA][DF] | %11
w: |||
w: |||
w: |||
w: |||
w: |||
 [CE]>[EG][DF] [CE]3 | [FA]>[DF][FA] [Fd]3 | [GB]>[DG][GB] [Gd]3 | [Ge]>[Gd][GB] [FA]>[Fd][DF] | %15
w: ||||
w: ||||
w: ||||
w: ||||
w: ||||
 [CA]>[B,G][B,E] D3 |] %16
w: |
w: |
w: |
w: |
w: |
V:2
 x5 D | x6 | x5 D | x6 | x5 D | x6 | x6 | x3 D3 || x6 | x6 | x6 | x6 | x6 | x6 | x6 | x3 D3 |] %16
w: gate-||di-||ly||||||||||||
w: mo-||tion||ry||||||||||||
w: lit-||ther,||the||||||||||||
w: hus-||one||a||||||||||||
w: glor-||of||One||||||||||||
V:3
 [D,A,]>[D,A,][D,A,] [D,A,][D,G,][D,F,] | [D,D][D,D][A,,C] [D,D]3 | %2
w: ~ ~ ~ ~ ~ ~|~ ~ ~ ~|
 [A,,D]>[A,,D][B,,D] [D,D][D,A,][D,F,] | [A,,A,][A,,A,][A,,A,] [A,,A,]3 | %4
w: ~ ~ ~ ~ ~ ~|~ ~ ~ ~|
 [D,A,]>[D,A,][D,A,] [D,A,][D,G,][D,F,] | [D,D][D,D][A,,C] [D,D]3 | %6
w: ~ ~ ~ ~ ~ ~|~ ~ ~ ~|
 [A,,D]>[A,,D][B,,D] [D,D][D,A,][D,A,] | [A,,A,][A,,E,][A,,G,] [D,F,]3 || %8
w: ~ ~ ~ ~ ~ ~|~ ~ ~ ~|
 [D,D]>[D,A,][D,D] [D,A,]3 | [G,,G,D]>[G,,G,B,][G,,G,D] [G,,G,B,]3 | %10
w: Beau- ti- ful hands,|beck- on- ing hands,|
 [D,D]>[D,A,][D,A,] [D,D][D,D][D,A,] | [A,,A,]>[A,,A,][A,,A,] [A,,A,]3 | %12
w: Call- ing the dear ones to|heav- en- ly lands;|
 [D,D]>[D,A,][D,D] [D,A,]3 | [G,,G,D]>[G,,G,B,][G,,G,D] [G,,G,B,]3 | %14
w: Beau- ti- ful hands,|beck- on- ing hands,|
 [G,B,]>[G,B,][G,D] [D,D]>[D,A,][D,A,] | [A,,A,]>[A,,E,][A,,G,] [D,F,]3 |] %16
w: Beau- ti- ful, beau- ti- ful,|beck- on- ing hands.|

